icons/folder-vscode-close-dark.svg

<svg width="16" height="16" viewBox="0 0 16 16" fill="none" xmlns="http://www.w3.org/2000/svg">
<path d="M15 8.9C15.005 8.92979 15.005 8.96021 15 8.99V8.9Z" fill="#0080BF"/>
<path d="M15.0001 10.205C15.0001 11.515 15.0001 12.835 15.0051 14.15C15.0106 14.1966 14.9997 14.2436 14.9741 14.2829C14.9485 14.3222 14.9099 14.3513 14.8651 14.365C14.7251 14.43 14.5801 14.49 14.4401 14.56L14.4351 13.17V13H14.5001C14.5894 13.0008 14.6773 12.9769 14.754 12.931C14.8308 12.8852 14.8934 12.8191 14.9351 12.74V14.06C14.9245 14.1331 14.9349 14.2076 14.9651 14.275V12.675C14.9891 12.6198 15.001 12.5602 15.0001 12.5V10.205Z" fill="#0080BF"/>
<path d="M15.0001 8.99V12.5C15.0011 12.5602 14.9891 12.6198 14.9651 12.675C14.9651 11.475 14.9651 10.275 14.9701 9.075C14.9701 9.005 14.9701 8.93 14.9751 8.855C14.9879 8.86499 14.9967 8.87914 15.0001 8.895V8.99Z" fill="#0080BF"/>
<path d="M15 2.5V7.77L13.92 7.275C13.7725 7.20161 13.6098 7.16393 13.445 7.165C13.2996 7.16524 13.1556 7.19455 13.0217 7.25122C12.8877 7.30789 12.7665 7.39078 12.665 7.495L12.54 7.615L12.14 8L11 9.085C10.45 8.555 9.9 8.03 9.35 7.5C9.13843 7.29016 8.85299 7.17167 8.555 7.17C8.37659 7.17154 8.20072 7.21252 8.04 7.29C7.895 7.36 7.75 7.425 7.605 7.49C7.41 7.575 7.22 7.665 7.03 7.755L6.95 7.785C6.74299 7.8636 6.54911 7.97318 6.375 8.11C6.35465 8.12461 6.33761 8.14335 6.325 8.165C6.25621 8.22619 6.19867 8.29895 6.155 8.38C6.13003 8.41909 6.10989 8.46106 6.095 8.505C6.06509 8.58046 6.04493 8.65943 6.035 8.74C6.03064 8.75285 6.02893 8.76646 6.03 8.78C6.03 8.785 6.025 8.795 6.03 8.8H6.025C6.01503 8.87459 6.01001 8.94975 6.01 9.025V13H2.5C2.36739 13 2.24021 12.9473 2.14645 12.8536C2.05268 12.7598 2 12.6326 2 12.5V4.5C2 4.36739 2.05268 4.24021 2.14645 4.14645C2.24021 4.05268 2.36739 4 2.5 4H6.005L7.005 2H14.5C14.6326 2 14.7598 2.05268 14.8536 2.14645C14.9473 2.24021 15 2.36739 15 2.5ZM14 4V3H8.006L7.506 4H14Z" fill="#7C868D"/>
<path d="M14.9709 8.86C14.9659 8.935 14.9659 9.01 14.9659 9.08C14.9609 10.28 14.9609 11.475 14.9609 12.68C14.9562 12.7037 14.9459 12.726 14.9309 12.745V9.09C14.9309 9.06 14.9409 9.02 14.9059 9C14.8709 8.98 14.8459 9.015 14.8209 9.04C14.3459 9.49 13.8759 9.94 13.4009 10.395C13.2209 10.565 13.0459 10.735 12.8659 10.905C12.8509 10.89 12.8359 10.88 12.8209 10.865C12.7062 10.7652 12.5689 10.6949 12.4209 10.66V10.62C12.4028 10.5447 12.3943 10.4674 12.3959 10.39C12.3967 10.2561 12.4245 10.1237 12.4778 10.0008C12.5311 9.8779 12.6087 9.76708 12.7059 9.675L12.9209 9.465L14.0109 8.425C14.3359 8.57 14.6509 8.715 14.9709 8.86Z" fill="#0075BA"/>
<path d="M14.961 12.675V14.275C14.9309 14.2076 14.9205 14.1331 14.931 14.06V12.74C14.9459 12.721 14.9562 12.6987 14.961 12.675Z" fill="#0075BA"/>
<path d="M14.931 10.175V12.74C14.8893 12.8191 14.8267 12.8852 14.75 12.931C14.6733 12.9769 14.5854 13.0008 14.496 13H14.431L14.426 12.765C14.4258 12.5946 14.3821 12.427 14.2989 12.2783C14.2158 12.1295 14.096 12.0045 13.951 11.915C13.946 11.915 13.936 11.905 13.931 11.895V11.265L13.831 11.365L13.596 11.59H13.591C13.536 11.535 13.481 11.48 13.421 11.425V10.56C13.421 10.51 13.441 10.45 13.396 10.4C13.871 9.95 14.341 9.5 14.816 9.045C14.841 9.02 14.861 8.985 14.901 9.005C14.941 9.025 14.926 9.065 14.926 9.095L14.931 10.175Z" fill="#0080BF"/>
<path d="M14.4309 13.17L14.4359 14.56C14.3109 14.61 14.1909 14.665 14.0709 14.725C13.9643 14.5221 13.9158 14.2937 13.9309 14.065V13H14.4309V13.17Z" fill="#0080BF"/>
<path d="M14.4259 12.765L14.4309 13H13.9309V11.895C13.9359 11.905 13.9459 11.91 13.9509 11.915C14.0959 12.0045 14.2157 12.1295 14.2989 12.2783C14.382 12.427 14.4257 12.5946 14.4259 12.765Z" fill="#0080BF"/>
<path d="M14.0711 14.725C13.8961 14.8 13.7211 14.88 13.5461 14.96C13.5157 14.9797 13.4817 14.9933 13.4461 15C13.4354 14.9991 13.4249 14.996 13.4154 14.9908C13.4059 14.9857 13.3977 14.9786 13.3911 14.97C13.4187 14.9265 13.4342 14.8765 13.4361 14.825C13.4311 14.215 13.4311 13.61 13.4261 13H13.9311V14.065C13.916 14.2937 13.9644 14.5221 14.0711 14.725Z" fill="#0080BF"/>
<path d="M14.0159 8.41999L12.9259 9.46L12.7109 9.66999C12.6137 9.76207 12.5361 9.87289 12.4828 9.99578C12.4295 10.1187 12.4017 10.2511 12.4009 10.385C12.3993 10.4624 12.4077 10.5397 12.4259 10.615V10.655C12.3797 10.6442 12.333 10.6359 12.2859 10.63C12.2509 10.63 12.2059 10.63 12.1659 10.63C12.1004 10.6297 12.035 10.6364 11.9709 10.65C11.9809 10.5905 11.9859 10.5303 11.9859 10.47C11.9851 10.2134 11.8868 9.96677 11.7109 9.78L12.8209 8.73C12.9959 8.565 13.1709 8.395 13.3459 8.23C13.3909 8.195 13.4209 8.155 13.4909 8.19C13.6659 8.26 13.8409 8.34499 14.0159 8.41999Z" fill="#0075BA"/>
<path d="M13.931 11.895V13H13.426V11.75L13.601 11.585C13.711 11.685 13.821 11.795 13.931 11.895Z" fill="#0080BF"/>
<path d="M13.9311 11.265V11.895C13.8211 11.795 13.7111 11.685 13.6011 11.585L13.8361 11.36L13.9311 11.265Z" fill="#0080BF"/>
<path d="M13.5999 11.58H13.6049L13.4299 11.745V11.41C13.4859 11.47 13.5409 11.525 13.5999 11.58Z" fill="#0080BF"/>
<path d="M13.4259 13C13.4309 13.61 13.4309 14.215 13.4359 14.825C13.434 14.8765 13.4185 14.9265 13.3909 14.97C13.1359 14.725 12.8709 14.485 12.6159 14.24C12.5559 14.18 12.4959 14.125 12.4359 14.065L12.4309 13.18V13H13.4259Z" fill="#1B8AC5"/>
<path d="M13.426 12.77V13H12.431L12.426 12.77V12.72L12.646 12.51C12.7463 12.4565 12.8361 12.3854 12.911 12.3C13.036 12.42 13.156 12.54 13.281 12.66C13.326 12.7 13.356 12.765 13.426 12.77Z" fill="#1B8AC5"/>
<path d="M13.3911 14.97C13.3977 14.9786 13.4059 14.9857 13.4154 14.9908C13.4249 14.996 13.4354 14.9991 13.4461 15C13.4352 14.9998 13.4245 14.9969 13.415 14.9917C13.4054 14.9865 13.3972 14.979 13.3911 14.97Z" fill="#0080BF"/>
<path d="M12.866 10.9C12.721 11.04 12.566 11.18 12.426 11.325V10.655C12.574 10.6899 12.7113 10.7602 12.826 10.86C12.836 10.875 12.851 10.885 12.866 10.9Z" fill="#0075BA"/>
<path d="M12.911 12.3C12.8361 12.3854 12.7463 12.4565 12.646 12.51L12.426 12.72V11.84C12.591 11.99 12.751 12.145 12.911 12.3Z" fill="#1B8AC5"/>
<path d="M12.431 13.18L12.436 14.065C12.201 13.845 11.971 13.62 11.741 13.395L11.831 13.295L12.136 13.005H12.431V13.18Z" fill="#1B8AC5"/>
<path d="M12.4261 12.77L12.4311 13H12.1311L12.4211 12.72L12.4261 12.77Z" fill="#1B8AC5"/>
<path d="M12.426 12.325V12.725L12.136 13.005H11.331C11.231 12.905 11.126 12.805 11.021 12.705C11.021 12.695 11.021 12.68 11.031 12.675C11.376 12.34 11.731 12.01 12.076 11.68C12.0877 11.6645 12.1028 11.652 12.1201 11.6433C12.1375 11.6346 12.1566 11.6301 12.176 11.63C12.261 11.7 12.341 11.77 12.421 11.845L12.426 12.325Z" fill="#1B8AC5"/>
<path d="M12.4259 10.655V11.325C12.3659 11.38 12.3109 11.435 12.2509 11.49C12.2159 11.525 12.1509 11.555 12.1809 11.625C12.1615 11.6251 12.1424 11.6296 12.1251 11.6383C12.1077 11.647 12.0926 11.6595 12.0809 11.675C11.7309 12.005 11.3809 12.335 11.0359 12.67C11.0259 12.675 11.0259 12.69 11.0259 12.7C10.9559 12.71 10.9259 12.77 10.8759 12.81C10.8109 12.875 10.7409 12.94 10.6759 13H10.0759C10.0286 12.8497 10.0183 12.6902 10.0459 12.535C10.2024 12.5031 10.3485 12.4326 10.4709 12.33L10.5209 12.29C10.596 12.2342 10.6678 12.1741 10.7359 12.11C10.9709 11.885 11.2109 11.655 11.4459 11.425L11.6909 11.185C11.8431 11.0409 11.9448 10.8515 11.9809 10.645C12.045 10.6314 12.1104 10.6247 12.1759 10.625C12.2159 10.625 12.2609 10.625 12.2959 10.625C12.3397 10.6329 12.3831 10.6429 12.4259 10.655Z" fill="#0075BA"/>
<path d="M12.1361 13L11.8311 13.29L11.7411 13.39C11.6011 13.26 11.4661 13.13 11.3311 12.995L12.1361 13Z" fill="#1B8AC5"/>
<path d="M11.986 10.465C11.986 10.5253 11.981 10.5855 11.971 10.645C11.7499 10.6859 11.5462 10.7922 11.386 10.95L10.336 11.95C10.1817 12.1013 10.0786 12.2971 10.041 12.51C10.041 12.52 10.036 12.53 10.036 12.54C9.96757 12.5582 9.89687 12.5666 9.82605 12.565C9.74101 12.5664 9.6564 12.5529 9.57605 12.525V12.375L9.57104 11.84C9.60604 11.805 9.64105 11.775 9.67105 11.74C9.72605 11.685 9.80104 11.64 9.82104 11.565C9.89104 11.505 9.96604 11.455 10.031 11.395C10.346 11.085 10.666 10.78 10.981 10.47C11.226 10.24 11.466 10.01 11.706 9.78C11.8826 9.96474 11.9826 10.2095 11.986 10.465Z" fill="#0075BA"/>
<path d="M11.9709 10.645C11.9348 10.8515 11.8331 11.0409 11.6809 11.185L11.4359 11.425C11.2009 11.655 10.9609 11.885 10.7259 12.11C10.6578 12.1741 10.586 12.2342 10.5109 12.29L10.4609 12.33C10.3385 12.4326 10.1924 12.5031 10.0359 12.535C10.0359 12.525 10.0409 12.515 10.0409 12.505C10.0784 12.2921 10.1815 12.0963 10.3359 11.945L11.3859 10.945C11.5467 10.789 11.7504 10.6845 11.9709 10.645Z" fill="#0075BA"/>
<path d="M10.986 10.465C10.671 10.775 10.351 11.08 10.036 11.39C9.97105 11.45 9.89605 11.5 9.82605 11.56L9.57104 11.32V10.445C9.73104 10.295 9.88605 10.14 10.046 9.985L10.266 9.775L10.986 10.465Z" fill="#1B8AC5"/>
<path d="M10.6709 13L10.2809 13.375C10.1839 13.2663 10.1107 13.1386 10.0659 13H10.6709Z" fill="#0075BA"/>
<path d="M10.2811 13.375C9.75107 13.8797 9.22107 14.388 8.69107 14.9C8.6589 14.9416 8.61244 14.9697 8.5607 14.9789C8.50897 14.9882 8.45564 14.9779 8.41107 14.95C8.26607 14.88 8.12107 14.815 7.97607 14.75L8.95607 13.81L9.27607 13.505C9.41342 13.3671 9.51027 13.1942 9.55607 13.005H10.0661C10.1115 13.1418 10.1847 13.2678 10.2811 13.375Z" fill="#0075BA"/>
<path d="M8.64607 8.22C9.18607 8.74 9.72607 9.25833 10.2661 9.775L10.0461 9.985C9.88607 10.14 9.73107 10.295 9.57107 10.445V10.405C9.57091 10.1785 9.49526 9.95862 9.35607 9.78C9.15445 9.53139 8.93015 9.30208 8.68607 9.095C8.55274 8.975 8.42274 8.85 8.29607 8.72C8.19607 8.62 8.09607 8.525 7.99107 8.425L7.97607 8.415C8.13607 8.34 8.29607 8.27 8.45107 8.195C8.481 8.17457 8.51738 8.16584 8.55332 8.17045C8.58926 8.17505 8.62226 8.19268 8.64607 8.22Z" fill="#1B8AC5"/>
<path d="M10.0659 13H9.55591C9.57191 12.9244 9.58028 12.8473 9.58091 12.77L9.57591 12.52C9.65626 12.5478 9.74088 12.5614 9.82591 12.56C9.89674 12.5616 9.96743 12.5532 10.0359 12.535C10.0083 12.6902 10.0186 12.8497 10.0659 13Z" fill="#0075BA"/>
<path d="M9.57595 12.52L9.58095 12.77C9.58032 12.8473 9.57194 12.9244 9.55595 13H8.34595C8.42595 12.925 8.50095 12.85 8.58095 12.775L9.12094 12.265L9.14095 12.285C9.26142 12.4021 9.412 12.4834 9.57595 12.52Z" fill="#0075BA"/>
<path d="M9.5761 12.37V12.52C9.41215 12.4834 9.26157 12.4021 9.14109 12.285L9.12109 12.265C9.27109 12.12 9.42109 11.98 9.57109 11.835L9.5761 12.37Z" fill="#0075BA"/>
<path d="M9.57107 10.73V11.32C9.41607 11.17 9.25607 11.02 9.10107 10.87C9.13107 10.84 9.16107 10.81 9.19107 10.785L9.27607 10.72C9.29607 10.7 9.32107 10.685 9.34107 10.665C9.41607 10.59 9.49607 10.52 9.57107 10.445V10.73Z" fill="#1B8AC5"/>
<path d="M9.57111 10.4V10.44C9.49611 10.515 9.41611 10.585 9.34111 10.66C9.32111 10.68 9.29612 10.695 9.27612 10.715L9.19112 10.78C9.16112 10.805 9.13112 10.835 9.10112 10.865C8.97112 10.75 8.84611 10.625 8.71611 10.505C8.67111 10.465 8.64111 10.4 8.57111 10.395C8.40752 10.1931 8.22503 10.0072 8.02612 9.84C7.77612 9.62 7.55111 9.375 7.30611 9.15C7.20611 9.05 7.11111 8.965 7.01611 8.87C7.14979 8.77615 7.2963 8.70206 7.45111 8.65L7.97612 8.41L7.99112 8.42C8.09112 8.52 8.19112 8.615 8.29612 8.715C8.42145 8.845 8.55145 8.97 8.68612 9.09C8.93019 9.29708 9.15449 9.5264 9.35611 9.775C9.4953 9.95362 9.57096 10.1736 9.57111 10.4Z" fill="#1B8AC5"/>
<path d="M8.34599 13H9.55598C9.51018 13.1892 9.41333 13.3621 9.27599 13.5L8.95599 13.805L7.97599 14.745L7.14598 14.37C7.09598 14.345 7.03099 14.345 7.01099 14.28L7.16098 14.145C7.55598 13.765 7.95099 13.385 8.34599 13Z" fill="#0075BA"/>
<path d="M8.571 11.75C8.571 12.09 8.576 12.435 8.581 12.775C8.501 12.85 8.426 12.925 8.346 13H7V12.9L7.55 12.375L7.89 12.05L8.16 11.79C8.235 11.715 8.315 11.645 8.39 11.57L8.571 11.75Z" fill="#00649F"/>
<path d="M8.57111 11.75L8.39111 11.575C8.45111 11.52 8.51111 11.46 8.57111 11.405V11.75Z" fill="#00649F"/>
<path d="M8.57098 10.4V11.4C8.51098 11.455 8.45098 11.515 8.39098 11.57L8.04598 11.25C7.94683 11.1867 7.85895 11.1073 7.78598 11.015C7.66006 10.8616 7.51939 10.7209 7.36598 10.595C7.24098 10.48 7.12098 10.365 7.00098 10.245V9.02C7.0035 8.97144 7.00851 8.92305 7.01598 8.875C7.11598 8.975 7.21098 9.06 7.30598 9.155C7.55098 9.38 7.77598 9.625 8.02598 9.845C8.22489 10.0122 8.40738 10.1981 8.57098 10.4Z" fill="#00649F"/>
<path d="M8.391 11.575C8.316 11.65 8.236 11.72 8.161 11.795L7.891 12.055L7.551 12.38L7 12.9V10.25C7.12 10.37 7.24 10.485 7.365 10.6C7.51841 10.7259 7.65909 10.8666 7.785 11.02C7.85797 11.1123 7.94585 11.1917 8.045 11.255L8.391 11.575Z" fill="#00649F"/>
<path d="M8.34598 13C7.94598 13.385 7.55598 13.765 7.16098 14.145L7.01098 14.28C7.00516 14.2352 7.00182 14.1901 7.00098 14.145V13H8.34598Z" fill="#00649F"/>
<path d="M6.08588 8.5C6.05597 8.57546 6.03581 8.65444 6.02588 8.735C6.03581 8.65444 6.05597 8.57546 6.08588 8.5Z" fill="#252526"/>
</svg>

<svg xmlns="http://www.w3.org/2000/svg" width="16" height="16" viewBox="0 0 16 16"><defs><style>.a{fill:#2490c9;}.b{fill:#7c868d;}.c{fill:#1987c5;}.d{fill:#3a9ace;}.e{fill:#1176ae;}.f{fill:#252526;}</style></defs><title>folder-vscode-close-dark</title><path class="a" d="M15,8.9v0Z"/><path class="a" d="M15,10.21v3.94a.21.21,0,0,1-.14.22l-.42.19V13h.07a.47.47,0,0,0,.43-.26v1.32a.46.46,0,0,0,0,.22v-1.6a.39.39,0,0,0,0-.18Z"/><path class="a" d="M15,9V12.5a.39.39,0,0,1,0,.18c0-1.2,0-2.4,0-3.6V8.86s0,0,0,0Z"/><path class="b" d="M15,2.5V7.77l-1.08-.49a1,1,0,0,0-.48-.11,1.1,1.1,0,0,0-.78.33l-.12.12L12.13,8,11,9.09,9.34,7.5a1.15,1.15,0,0,0-.79-.33A1.23,1.23,0,0,0,8,7.29l-.43.2L7,7.76l-.08,0a2.28,2.28,0,0,0-.57.32s0,0,0,.06a.68.68,0,0,0-.17.21.31.31,0,0,0-.06.13A.86.86,0,0,0,6,8.74a.06.06,0,0,0,0,0v0H6A1.79,1.79,0,0,0,6,9v4H2.5a.5.5,0,0,1-.5-.5v-8A.5.5,0,0,1,2.5,4H6L7,2H14.5A.51.51,0,0,1,15,2.5ZM14,4V3H8l-.5,1Z"/><path class="c" d="M15,8.86v.22c0,1.2,0,2.4,0,3.6a.09.09,0,0,1,0,.06V9.09s0-.07,0-.09-.06,0-.09,0L13.4,10.39l-.53.51,0,0a.86.86,0,0,0-.39-.2v0a1,1,0,0,1,0-.23,1,1,0,0,1,.31-.72l.22-.21,1.09-1Z"/><path class="c" d="M15,12.68v1.6a.46.46,0,0,1,0-.22V12.74A.09.09,0,0,0,15,12.68Z"/><path class="a" d="M14.93,10.18v2.56a.47.47,0,0,1-.43.26h-.07v-.23a1,1,0,0,0-.48-.85l0,0v-.63l-.09.09-.24.23h0l-.17-.16v-.87c0-.05,0-.11,0-.16L14.82,9s0-.06.09,0,0,.06,0,.09Z"/><path class="a" d="M14.43,13.17v1.39l-.37.17a1.3,1.3,0,0,1-.14-.66V13h.5Z"/><path class="a" d="M14.43,12.77V13h-.5V11.9l0,0A1,1,0,0,1,14.43,12.77Z"/><path class="a" d="M14.07,14.73l-.52.23a.26.26,0,0,1-.1,0l-.06,0a.24.24,0,0,0,0-.14c0-.61,0-1.22,0-1.83h.5v1.07A1.3,1.3,0,0,0,14.07,14.73Z"/><path class="c" d="M14,8.42l-1.09,1-.22.21a1,1,0,0,0-.31.72,1,1,0,0,0,0,.23v0l-.14,0h-.12a.71.71,0,0,0-.2,0,1.1,1.1,0,0,0,0-.18,1,1,0,0,0-.28-.69l1.11-1,.53-.51s.07-.07.14,0S13.84,8.35,14,8.42Z"/><path class="a" d="M13.93,11.9V13h-.5V11.75l.17-.16Z"/><path class="a" d="M13.93,11.27v.63l-.33-.31.24-.23Z"/><path class="a" d="M13.6,11.58h0l-.17.16v-.33Z"/><path class="d" d="M13.43,13c0,.61,0,1.22,0,1.83a.24.24,0,0,1,0,.14c-.25-.24-.52-.48-.77-.73l-.18-.17V13Z"/><path class="d" d="M13.43,12.77V13h-1v-.28l.22-.21a1,1,0,0,0,.26-.21l.37.36C13.33,12.7,13.36,12.77,13.43,12.77Z"/><path class="a" d="M13.39,15l.06,0A.06.06,0,0,1,13.39,15Z"/><path class="c" d="M12.87,10.9c-.15.14-.3.28-.44.43v-.67a.86.86,0,0,1,.39.2Z"/><path class="d" d="M12.91,12.3a1,1,0,0,1-.26.21l-.22.21v-.88Z"/><path class="d" d="M12.43,13.18v.89l-.7-.67.09-.11.31-.29h.29Z"/><polygon class="d" points="12.43 12.77 12.43 13 12.14 13 12.43 12.72 12.43 12.77"/><path class="d" d="M12.43,12.33v.39l-.29.28h-.81L11,12.7a0,0,0,0,1,0,0l1.05-1s.06-.06.1,0l.25.21Z"/><path class="c" d="M12.43,10.66v.67l-.18.16s-.1.07-.07.14-.07,0-.1,0l-1.05,1a0,0,0,0,0,0,0c-.07,0-.1.07-.15.11a1.8,1.8,0,0,1-.2.19h-.6a.9.9,0,0,1,0-.46.88.88,0,0,0,.42-.21l0,0a1.24,1.24,0,0,0,.22-.18l.71-.68.24-.24a.93.93,0,0,0,.29-.54.71.71,0,0,1,.2,0h.12Z"/><path class="d" d="M12.14,13l-.31.29-.09.11-.41-.4Z"/><path class="c" d="M12,10.47a1.1,1.1,0,0,1,0,.18,1.12,1.12,0,0,0-.58.3l-1.05,1a1.06,1.06,0,0,0-.3.56v0a.75.75,0,0,1-.21,0,.69.69,0,0,1-.25,0v-.68l.11-.1c.05-.06.13-.1.15-.18l.21-.17,1-.92.72-.69A1,1,0,0,1,12,10.47Z"/><path class="c" d="M12,10.65a.93.93,0,0,1-.29.54l-.24.24-.71.68a1.24,1.24,0,0,1-.22.18l0,0a.88.88,0,0,1-.42.21v0a1.06,1.06,0,0,1,.3-.56l1.05-1A1.12,1.12,0,0,1,12,10.65Z"/><path class="d" d="M11,10.47l-1,.92-.21.17-.26-.24v-.87l.48-.46.22-.21Z"/><path class="c" d="M10.67,13l-.39.38a1,1,0,0,1-.21-.38Z"/><path class="c" d="M10.28,13.38,8.69,14.9a.2.2,0,0,1-.28,0L8,14.75l1-.94.32-.31a1.08,1.08,0,0,0,.28-.5h.51A1,1,0,0,0,10.28,13.38Z"/><path class="d" d="M8.65,8.22l1.62,1.56-.22.21-.48.46v0a1,1,0,0,0-.21-.63,5.42,5.42,0,0,0-.67-.68,4.68,4.68,0,0,1-.39-.38L8,8.43H8l.47-.22A.15.15,0,0,1,8.65,8.22Z"/><path class="c" d="M10.07,13H9.56a1.64,1.64,0,0,0,0-.23v-.25a.69.69,0,0,0,.25,0,.75.75,0,0,0,.21,0A.9.9,0,0,0,10.07,13Z"/><path class="c" d="M9.58,12.52v.25a1.64,1.64,0,0,1,0,.23H8.35l.23-.22.54-.51,0,0A.89.89,0,0,0,9.58,12.52Z"/><path class="c" d="M9.58,12.37v.15a.89.89,0,0,1-.44-.23l0,0,.45-.43Z"/><path class="d" d="M9.57,10.73v.59l-.47-.45.09-.08.09-.07.06-.05.23-.22Z"/><path class="d" d="M9.57,10.41v0l-.23.22-.06.05-.09.07-.09.08c-.13-.11-.25-.24-.38-.36s-.08-.1-.15-.11A4.68,4.68,0,0,0,8,9.85c-.25-.22-.48-.47-.72-.69L7,8.88a1.59,1.59,0,0,1,.43-.22L8,8.42H8l.31.29a4.68,4.68,0,0,0,.39.38,5.42,5.42,0,0,1,.67.68A1,1,0,0,1,9.57,10.41Z"/><path class="c" d="M8.35,13H9.56a1.08,1.08,0,0,1-.28.5L9,13.81l-1,.94-.83-.38c-.05,0-.12,0-.14-.09l.15-.13Z"/><path class="e" d="M8.57,11.75c0,.34,0,.69,0,1L8.35,13H7v-.09l.55-.53.34-.32.27-.26.23-.22Z"/><path class="e" d="M8.57,11.75l-.18-.17.18-.17v.34Z"/><path class="e" d="M8.57,10.4v1l-.18.17-.34-.32A1,1,0,0,1,7.79,11a3.33,3.33,0,0,0-.42-.42c-.13-.11-.25-.23-.37-.35V9a.77.77,0,0,1,0-.15H7l.29.28c.24.22.47.47.72.69A4.68,4.68,0,0,1,8.57,10.4Z"/><path class="e" d="M8.39,11.58l-.23.22-.27.26-.34.32L7,12.91V10.25c.12.12.24.24.37.35a3.33,3.33,0,0,1,.42.42,1,1,0,0,0,.26.24Z"/><path class="e" d="M8.35,13,7.16,14.15,7,14.28s0-.09,0-.13V13Z"/><path class="f" d="M6.09,8.51A.86.86,0,0,0,6,8.74.86.86,0,0,1,6.09,8.51Z"/></svg>
